components/ui/illustrations/Benefits/through-the-vortex.svg

<svg fill="none" height="441" viewBox="0 0 445 441" width="445" xmlns="http://www.w3.org/2000/svg"><path d="m95.8342 270.093-9.1712-3.099c-.9469-.318-1.9865-.053-2.6619.675l-22.6598 24.455c-1.033 1.112-.8542 2.88.3774 3.767l2.3507 1.696c.8543.615 2.0065.642 2.8872.053l23.2292-15.529z" style="fill:#fff;stroke:#212125;stroke-width:2;stroke-miterlimit:10;stroke-linecap:round;stroke-linejoin:round"/><path d="m348.039 397.704 4.298 8.674c.443.894 1.364 1.444 2.364 1.404l33.314-1.265c1.516-.059 2.642-1.43 2.404-2.933l-.471-2.914c-.165-1.013-.927-1.834-1.933-2.059l-32.083-7.377z" style="fill:#3872f5;stroke:#212125;stroke-width:4;stroke-miterlimit:10;stroke-linecap:round;stroke-linejoin:round"/><path d="m95.2648 81.7793c-.3775 0-.7549.053-1.1323.1192-.3775-.0729-.7549-.1192-1.1324-.1192-.6886 0-1.3641.1324-2.0395.3708-.6754-.2317-1.3574-.3708-2.0395-.3708-17.7597 0-32.1555 79.9777-32.1555 178.6427s14.3958 178.643 32.1555 178.643c.6887 0 1.3641-.132 2.0395-.37.6754.231 1.3575.37 2.0395.37.3775 0 .7549-.053 1.1324-.119.3774.073.7548.119 1.1323.119 17.7592 0 32.1552-79.978 32.1552-178.643s-14.402-178.6427-32.1552-178.6427z" fill="#212125"/><path d="m89.1594 438.401c17.7586 0 32.1556-79.981 32.1556-178.643s-14.397-178.6428-32.1556-178.6428c-17.759 0-32.1555 79.9808-32.1555 178.6428s14.3965 178.643 32.1555 178.643z" fill="#212125"/><g stroke="#212125"><path d="m83.0774 438.401c17.7586 0 32.1556-79.981 32.1556-178.643s-14.397-178.6428-32.1556-178.6428c-17.759 0-32.1555 79.9808-32.1555 178.6428s14.3965 178.643 32.1555 178.643z" fill="#fff" stroke-linecap="round" stroke-linejoin="round" stroke-miterlimit="10" stroke-width="4"/><path d="m91.4289 438.401c17.7591 0 32.1551-79.981 32.1551-178.643s-14.396-178.6428-32.1551-178.6428c-17.759 0-32.1555 79.9808-32.1555 178.6428s14.3965 178.643 32.1555 178.643z" fill="#76f651" stroke-linecap="round" stroke-linejoin="round" stroke-miterlimit="10" stroke-width="4"/><path d="m264.379 172.264 1.549-6.026" stroke-linecap="round" stroke-linejoin="round" stroke-miterlimit="10" stroke-width="2"/><path d="m261.727 101.359s17.203 5.616 19.454 5.616l-4.555 21.209-14.515-9.542z" fill="#3872f5" stroke-linecap="round" stroke-linejoin="round" stroke-miterlimit="10" stroke-width="4"/><path d="m227.858 181.561s-20.62 30.182-20.971 36.194c-.351 6.013-6.364 65.43-6.364 65.43-7.383-1.986-70.27-9.217-94.811-11.992-.192 2.576-.569 5.139-.748 7.721-.02.278.073.55 0 .795.212 2.344.106 4.682.152 7.039 25.044 7.694 74.714 22.699 94.699 26.851 27.235 5.662 28.043-10.257 28.043-10.257l20.335-59.02z" fill="#212125" stroke-linecap="round" stroke-linejoin="round" stroke-miterlimit="10" stroke-width="4"/><path d="m264.384 172.262 4.053 18.72s29.599 45.71 40.048 86.633l47.452 113.623-7.403 6.092s-44.406-50.061-63.126-102.3c0 0-52.127-63.94-54.841-86.812-2.715-22.872-2.715-35.956-2.715-35.956z" fill="#212125" stroke-linecap="round" stroke-linejoin="round" stroke-miterlimit="10" stroke-width="4"/><path d="m243.776 97.416v5.45l19.839 6.569-2.815-12.0587c1.669.5231 3.338 1.0462 5.013 1.5694 1.689.5297 3.536-.2119 4.344-1.7813.007-.0133.013-.0265.02-.0331 3.39-6.6483 2.827-16.5876-3.139-22.5141-1.172-1.1589-3.41-3.5229-6.767-4.0195-10.913-1.6223-21.197 17.4948-21.197 17.4948z" fill="#fff" stroke-linecap="round" stroke-linejoin="round" stroke-miterlimit="10" stroke-width="4"/></g><path d="m270.573 57.1317c-9.959-3.2116-13.8 6.5754-13.8 6.5754s-8.92-5.2775-17.707.7483c.961-9.4626-8.999-16.9717-18.508-18.104-4.171-.4966-8.714-.0993-12.038 2.4765-6.854 5.3107-5.039 16.2764-9.423 23.7591-3.337 5.6947-9.972 8.7076-16.488 9.7671-4.702.7682-10.165 1.0463-13.012 4.8671-1.218 1.6422-1.728 3.6949-2.152 5.6947-2.907 13.7271-4.02 29.2021-14.25 38.7971-5.404 5.066-12.694 7.688-19.991 8.992-6 1.08-12.893 1.775-16.489 6.695-1.576 2.152-2.245 4.814-2.754 7.43-1.497 7.721-1.775 16.005 1.49 23.156 5.582 12.244 21.342 18.111 34.155 13.992 12.747-4.092 21.507-15.892 27.03-28.09 5.278-11.661 9.284-25.341 20.422-31.639 4.761-2.688 10.568-3.814 14.303-7.807 3.701-3.953 4.45-9.727 5.754-14.985 2.066-8.317 5.96-16.1703 11.323-22.8451 2.146 9.3368 15.323 10.7936 15.323 10.7936 2.609.2914 4.212-.6688 5.178-1.7945.974-1.1323 1.411-2.6355 1.345-4.132l-.212-4.4432s-7.47.6158-4.046-4.5956c3.423-5.2113 6.84.4437 6.84.4437 6.086 1.3243 4.318-.3311 6.198-4.4234 1.881-4.0923 7.966-3.8737 7.966-3.8737 14.608-8.8269 3.543-17.4551 3.543-17.4551z" fill="#212125"/><path d="m223.09 94.5395s9.191-.5364 20.686 8.3305c0 0 20.263 6.522 28.818 5.211 0 0-4.926 1.94-2.847 15.27z" style="fill:#3872f5;stroke:#212125;stroke-width:4;stroke-miterlimit:10;stroke-linecap:round;stroke-linejoin:round"/><path d="m264.384 172.263h-6.357l2.364-8.986 5.543 2.96z" style="fill:#fff;stroke:#212125;stroke-width:2;stroke-miterlimit:10;stroke-linecap:round;stroke-linejoin:round"/><path d="m4.36012 184.607c1.52136 0 2.75467-1.233 2.75467-2.755 0-1.521-1.23331-2.754-2.75467-2.754s-2.75465 1.233-2.75465 2.754c0 1.522 1.23329 2.755 2.75465 2.755z" fill="#212125"/><path d="m3.75467 184.017c1.52137 0 2.75468-1.233 2.75468-2.755 0-1.521-1.23331-2.754-2.75468-2.754-1.52136 0-2.75467 1.233-2.75467 2.754 0 1.522 1.23331 2.755 2.75467 2.755z" style="fill:#fff;stroke:#212125;stroke-width:2;stroke-miterlimit:10;stroke-linecap:round;stroke-linejoin:round"/><path d="m250.576 252.059-17.326-34.055" stroke="#fff" stroke-linecap="round" stroke-linejoin="round" stroke-miterlimit="10" stroke-width="4"/><path d="m259.952 162.953c-9.641 42.194-39.413 75.826-39.413 75.826l-3.927-5.244s-12.68-19.442-35.499-19.442-26.765-18.309-26.765-18.309c10.707-4.51 22.256-12.959 22.256-12.959 36.625-28.169 46.485-88.282 46.485-88.282 10.244 1.0595 76.051 50.478 84.832 55.305 8.78 4.828 48.014-3.291 48.014-3.291-2.026 19.316 9.489 23.263 9.489 23.263s-8.999 5.045-18.216 5.045c-9.218 0-29.633 3.51-29.633 3.51s-5.271 6.145-10.754 6.364c-5.489.218-14.925-6.145-14.925-6.145-15.806-5.046-38.407-19.972-38.407-19.972" fill="#3872f5"/><path d="m259.952 162.953c-9.641 42.194-39.413 75.826-39.413 75.826l-3.926-5.244s-12.681-19.442-35.5-19.442-26.765-18.309-26.765-18.309c10.707-4.51 22.256-12.959 22.256-12.959 36.625-28.169 46.485-88.282 46.485-88.282 10.244 1.0595 76.051 50.478 84.832 55.305 8.78 4.828 48.014-3.291 48.014-3.291-2.026 19.316 9.489 23.263 9.489 23.263s-8.999 5.045-18.216 5.045c-9.218 0-29.633 3.51-29.633 3.51s-5.271 6.145-10.754 6.364c-5.489.218-14.925-6.145-14.925-6.145-15.806-5.046-38.407-19.972-38.407-19.972" stroke="#212125" stroke-linecap="round" stroke-linejoin="round" stroke-miterlimit="10" stroke-width="4"/><path d="m377.394 3.58203c-.378 0-.755.05297-1.133.11919-.377-.07284-.754-.11919-1.132-.11919-.689 0-1.364.13244-2.039.37082-.676-.23176-1.358-.37082-2.04-.37082-17.76 0-32.155 79.97817-32.155 178.64297 0 98.665 14.395 178.643 32.155 178.643.689 0 1.364-.132 2.04-.371.675.232 1.357.371 2.039.371.378 0 .755-.053 1.132-.119.378.073.755.119 1.133.119 17.759 0 32.155-79.978 32.155-178.643 0-98.6648-14.396-178.64297-32.155-178.64297z" fill="#212125"/><path d="m355.932 146.552 29.017-6.138s4.073.358.563 2.483c-3.51 2.119-12.773 3.655-12.773 3.655l8.416 3.517s2.099 2.384.417 6.026c-1.682 3.641-3.099 0-3.099 0l.437-3.338-8.072-2.073s4.649 6.967-3.099 8.132c-7.754 1.165-11.813 0-11.813 0v-12.264z" style="fill:#fff;stroke:#212125;stroke-width:2;stroke-miterlimit:10;stroke-linecap:round;stroke-linejoin:round"/><path d="m369.288 360.204c17.759 0 32.156-79.981 32.156-178.643 0-98.6618-14.397-178.64303-32.156-178.64303s-32.155 79.98123-32.155 178.64303c0 98.662 14.396 178.643 32.155 178.643z" fill="#212125"/><path d="m363.206 360.204c17.759 0 32.156-79.981 32.156-178.643 0-98.6618-14.397-178.64303-32.156-178.64303s-32.155 79.98123-32.155 178.64303c0 98.662 14.396 178.643 32.155 178.643z" style="fill:#fff;stroke:#212125;stroke-width:4;stroke-miterlimit:10;stroke-linecap:round;stroke-linejoin:round"/><path d="m372.558 360.204c17.759 0 32.155-79.981 32.155-178.643 0-98.6618-14.396-178.64303-32.155-178.64303s-32.156 79.98123-32.156 178.64303c0 98.662 14.397 178.643 32.156 178.643z" style="fill:#eb4130;stroke:#212125;stroke-width:4;stroke-miterlimit:10;stroke-linecap:round;stroke-linejoin:round"/><path d="m380.063 107.125c2.769 0 5.013-2.244 5.013-5.013 0-2.7681-2.244-5.0124-5.013-5.0124-2.768 0-5.012 2.2443-5.012 5.0124 0 2.769 2.244 5.013 5.012 5.013z" fill="#212125"/><path d="m378.958 106.053c2.768 0 5.013-2.245 5.013-5.013 0-2.7684-2.245-5.0127-5.013-5.0127s-5.013 2.2443-5.013 5.0127c0 2.768 2.245 5.013 5.013 5.013z" style="fill:#fff;stroke:#212125;stroke-width:4;stroke-miterlimit:10;stroke-linecap:round;stroke-linejoin:round"/><path d="m218.502 178.508-18.389 20.355" stroke="#212125" stroke-linecap="round" stroke-linejoin="round" stroke-miterlimit="10" stroke-width="4"/><path d="m388.014 167.113s2-6.695-1.901-10.549z" fill="#fff"/><path d="m388.014 167.113s2-6.695-1.901-10.549" stroke="#212125" stroke-linecap="round" stroke-linejoin="round" stroke-miterlimit="10" stroke-width="4"/><path d="m368.507 145.949c-1.091-10.225-3.73-15.23-6.711-15.23-3.973 0-7.194 12.748-7.194 28.474 0 15.725 3.221 28.473 7.194 28.473 3.058 0 5.007-4.586 6.049-15.23" stroke="#212125" stroke-width="4"/><circle cx="438.715" cy="174.465" fill="#212125" r="6"/><path d="m111.57 279.047c0 9.76-.991 18.529-2.558 24.799-.788 3.151-1.694 5.559-2.623 7.131-1.009 1.706-1.668 1.828-1.758 1.828-.091 0-.75-.122-1.758-1.828-.929-1.572-1.835-3.98-2.623-7.131-1.5677-6.27-2.5586-15.039-2.5586-24.799s.9909-18.529 2.5586-24.8c.788-3.15 1.694-5.558 2.623-7.13 1.008-1.706 1.667-1.828 1.758-1.828.09 0 .749.122 1.758 1.828.929 1.572 1.835 3.98 2.623 7.13 1.567 6.271 2.558 15.04 2.558 24.8z" stroke="#212125" stroke-width="4"/><path d="m105.298 265.805c-.662 5.518-1.788 18.872-.993 28.142" stroke="#212125" stroke-linecap="round" stroke-width="4"/><path d="m92.3866 260.506c-.9933 6.511-2.3839 22.845 0 36.089" stroke="#212125" stroke-linecap="round" stroke-width="4"/><path d="m349.953 139.328c-.221.993-3.642 10.595-1.987 27.812" stroke="#212125" stroke-linecap="round" stroke-linejoin="round" stroke-width="4"/><path d="m349.619 179.059c-.221-.994-.662-3.709-.662-6.622" stroke="#212125" stroke-linecap="round" stroke-linejoin="round" stroke-width="4"/><path d="m407.531 137.713-29.017 6.138c-.308 2.797-.51 13.119 1.153 16.032 0 0 2.907 1.397 10.661.232 7.747-1.166 3.099-8.132 3.099-8.132l8.072 2.073-.437 3.337s3.417 3.642 5.099 0c1.675-3.642-.424-8.026-.424-8.026l-9.737-2.867s8.99-1.381 12.5-3.5c3.51-2.126-.969-5.287-.969-5.287z" style="fill:#fff;stroke:#212125;stroke-width:4;stroke-miterlimit:10;stroke-linecap:round;stroke-linejoin:round"/><path d="m378.516 143.852s-11.092 1.999-22.024 3.423c-1.338 3.861-3.211 14.631 0 26.818 1.099-1.536 13.297-1.933 13.297-1.933 9.217 0 18.216-5.046 18.216-5.046s-11.515-3.947-9.489-23.262z" style="fill:#3872f5;stroke:#212125;stroke-width:4;stroke-miterlimit:10;stroke-linecap:round;stroke-linejoin:round"/></svg>

<svg width="445" height="441" viewBox="0 0 445 441" fill="none" xmlns="http://www.w3.org/2000/svg">
<path d="M95.8342 270.093L86.663 266.994C85.7161 266.676 84.6765 266.941 84.0011 267.669L61.3413 292.124C60.3083 293.236 60.4871 295.004 61.7187 295.891L64.0694 297.587C64.9237 298.202 66.0759 298.229 66.9566 297.64L90.1858 282.111L95.8342 270.093Z" fill="white" stroke="#212125" stroke-width="2" stroke-miterlimit="10" stroke-linecap="round" stroke-linejoin="round"/>
<path d="M348.039 397.704L352.337 406.378C352.78 407.272 353.701 407.822 354.701 407.782L388.015 406.517C389.531 406.458 390.657 405.087 390.419 403.584L389.948 400.67C389.783 399.657 389.021 398.836 388.015 398.611L355.932 391.234L348.039 397.704Z" fill="#3872F5" stroke="#212125" stroke-width="4" stroke-miterlimit="10" stroke-linecap="round" stroke-linejoin="round"/>
<path d="M95.2648 81.7793C94.8873 81.7793 94.5099 81.8323 94.1325 81.8985C93.755 81.8256 93.3776 81.7793 93.0001 81.7793C92.3115 81.7793 91.636 81.9117 90.9606 82.1501C90.2852 81.9184 89.6032 81.7793 88.9211 81.7793C71.1614 81.7793 56.7656 161.757 56.7656 260.422C56.7656 359.087 71.1614 439.065 88.9211 439.065C89.6098 439.065 90.2852 438.933 90.9606 438.695C91.636 438.926 92.3181 439.065 93.0001 439.065C93.3776 439.065 93.755 439.012 94.1325 438.946C94.5099 439.019 94.8873 439.065 95.2648 439.065C113.024 439.065 127.42 359.087 127.42 260.422C127.42 161.757 113.018 81.7793 95.2648 81.7793Z" fill="#212125"/>
<path d="M89.1594 438.401C106.918 438.401 121.315 358.42 121.315 259.758C121.315 161.096 106.918 81.1152 89.1594 81.1152C71.4004 81.1152 57.0039 161.096 57.0039 259.758C57.0039 358.42 71.4004 438.401 89.1594 438.401Z" fill="#212125"/>
<path d="M83.0774 438.401C100.836 438.401 115.233 358.42 115.233 259.758C115.233 161.096 100.836 81.1152 83.0774 81.1152C65.3184 81.1152 50.9219 161.096 50.9219 259.758C50.9219 358.42 65.3184 438.401 83.0774 438.401Z" fill="white" stroke="#212125" stroke-width="4" stroke-miterlimit="10" stroke-linecap="round" stroke-linejoin="round"/>
<path d="M91.4289 438.401C109.188 438.401 123.584 358.42 123.584 259.758C123.584 161.096 109.188 81.1152 91.4289 81.1152C73.6699 81.1152 59.2734 161.096 59.2734 259.758C59.2734 358.42 73.6699 438.401 91.4289 438.401Z" fill="#76F651" stroke="#212125" stroke-width="4" stroke-miterlimit="10" stroke-linecap="round" stroke-linejoin="round"/>
<path d="M264.379 172.264L265.928 166.238" stroke="#212125" stroke-width="2" stroke-miterlimit="10" stroke-linecap="round" stroke-linejoin="round"/>
<path d="M261.727 101.359C261.727 101.359 278.93 106.975 281.181 106.975L276.626 128.184L262.111 118.642L261.727 101.359Z" fill="#3872F5" stroke="#212125" stroke-width="4" stroke-miterlimit="10" stroke-linecap="round" stroke-linejoin="round"/>
<path d="M227.858 181.561C227.858 181.561 207.238 211.743 206.887 217.755C206.536 223.768 200.523 283.185 200.523 283.185C193.14 281.199 130.253 273.968 105.712 271.193C105.52 273.769 105.143 276.332 104.964 278.914C104.944 279.192 105.037 279.464 104.964 279.709C105.176 282.053 105.07 284.391 105.116 286.748C130.16 294.442 179.83 309.447 199.815 313.599C227.05 319.261 227.858 303.342 227.858 303.342L248.193 244.322L227.858 181.561Z" fill="#212125" stroke="#212125" stroke-width="4" stroke-miterlimit="10" stroke-linecap="round" stroke-linejoin="round"/>
<path d="M264.384 172.262L268.437 190.982C268.437 190.982 298.036 236.692 308.485 277.615L355.937 391.238L348.534 397.33C348.534 397.33 304.128 347.269 285.408 295.03C285.408 295.03 233.281 231.09 230.567 208.218C227.852 185.346 227.852 172.262 227.852 172.262H264.384Z" fill="#212125" stroke="#212125" stroke-width="4" stroke-miterlimit="10" stroke-linecap="round" stroke-linejoin="round"/>
<path d="M243.776 97.416V102.866L263.615 109.435L260.8 97.3763C262.469 97.8994 264.138 98.4225 265.813 98.9457C267.502 99.4754 269.349 98.7338 270.157 97.1644C270.164 97.1511 270.17 97.1379 270.177 97.1313C273.567 90.483 273.004 80.5437 267.038 74.6172C265.866 73.4583 263.628 71.0943 260.271 70.5977C249.358 68.9754 239.074 88.0925 239.074 88.0925L243.776 97.416Z" fill="white" stroke="#212125" stroke-width="4" stroke-miterlimit="10" stroke-linecap="round" stroke-linejoin="round"/>
<path d="M270.573 57.1317C260.614 53.9201 256.773 63.7071 256.773 63.7071C256.773 63.7071 247.853 58.4296 239.066 64.4554C240.027 54.9928 230.067 47.4837 220.558 46.3514C216.387 45.8548 211.844 46.2521 208.52 48.8279C201.666 54.1386 203.481 65.1043 199.097 72.587C195.76 78.2817 189.125 81.2946 182.609 82.3541C177.907 83.1223 172.444 83.4004 169.597 87.2212C168.379 88.8634 167.869 90.9161 167.445 92.9159C164.538 106.643 163.425 122.118 153.195 131.713C147.791 136.779 140.501 139.401 133.204 140.705C127.204 141.785 120.311 142.48 116.715 147.4C115.139 149.552 114.47 152.214 113.961 154.83C112.464 162.551 112.186 170.835 115.451 177.986C121.033 190.23 136.793 196.097 149.606 191.978C162.353 187.886 171.113 176.086 176.636 163.888C181.914 152.227 185.92 138.547 197.058 132.249C201.819 129.561 207.626 128.435 211.361 124.442C215.062 120.489 215.811 114.715 217.115 109.457C219.181 101.14 223.075 93.2867 228.438 86.6119C230.584 95.9487 243.761 97.4055 243.761 97.4055C246.37 97.6969 247.973 96.7367 248.939 95.611C249.913 94.4787 250.35 92.9755 250.284 91.479L250.072 87.0358C250.072 87.0358 242.602 87.6516 246.026 82.4402C249.449 77.2289 252.866 82.8839 252.866 82.8839C258.952 84.2082 257.184 82.5528 259.064 78.4605C260.945 74.3682 267.03 74.5868 267.03 74.5868C281.638 65.7599 270.573 57.1317 270.573 57.1317Z" fill="#212125"/>
<path d="M223.09 94.5395C223.09 94.5395 232.281 94.0031 243.776 102.87C243.776 102.87 264.039 109.392 272.594 108.081C272.594 108.081 267.668 110.021 269.747 123.351L223.09 94.5395Z" fill="#3872F5" stroke="#212125" stroke-width="4" stroke-miterlimit="10" stroke-linecap="round" stroke-linejoin="round"/>
<path d="M264.384 172.263H258.027L260.391 163.277L265.934 166.237L264.384 172.263Z" fill="white" stroke="#212125" stroke-width="2" stroke-miterlimit="10" stroke-linecap="round" stroke-linejoin="round"/>
<path d="M4.36012 184.607C5.88148 184.607 7.11479 183.374 7.11479 181.852C7.11479 180.331 5.88148 179.098 4.36012 179.098C2.83876 179.098 1.60547 180.331 1.60547 181.852C1.60547 183.374 2.83876 184.607 4.36012 184.607Z" fill="#212125"/>
<path d="M3.75467 184.017C5.27604 184.017 6.50935 182.784 6.50935 181.262C6.50935 179.741 5.27604 178.508 3.75467 178.508C2.23331 178.508 1 179.741 1 181.262C1 182.784 2.23331 184.017 3.75467 184.017Z" fill="white" stroke="#212125" stroke-width="2" stroke-miterlimit="10" stroke-linecap="round" stroke-linejoin="round"/>
<path d="M250.576 252.059L233.25 218.004" stroke="white" stroke-width="4" stroke-miterlimit="10" stroke-linecap="round" stroke-linejoin="round"/>
<path d="M259.952 162.953C250.311 205.147 220.539 238.779 220.539 238.779L216.612 233.535C216.612 233.535 203.932 214.093 181.113 214.093C158.294 214.093 154.348 195.784 154.348 195.784C165.055 191.274 176.604 182.825 176.604 182.825C213.229 154.656 223.089 94.543 223.089 94.543C233.333 95.6025 299.14 145.021 307.921 149.848C316.701 154.676 355.935 146.557 355.935 146.557C353.909 165.873 365.424 169.82 365.424 169.82C365.424 169.82 356.425 174.865 347.208 174.865C337.99 174.865 317.575 178.375 317.575 178.375C317.575 178.375 312.304 184.52 306.821 184.739C301.332 184.957 291.896 178.594 291.896 178.594C276.09 173.548 253.489 158.622 253.489 158.622" fill="#3872F5"/>
<path d="M259.952 162.953C250.311 205.147 220.539 238.779 220.539 238.779L216.613 233.535C216.613 233.535 203.932 214.093 181.113 214.093C158.294 214.093 154.348 195.784 154.348 195.784C165.055 191.274 176.604 182.825 176.604 182.825C213.229 154.656 223.089 94.543 223.089 94.543C233.333 95.6025 299.14 145.021 307.921 149.848C316.701 154.676 355.935 146.557 355.935 146.557C353.909 165.873 365.424 169.82 365.424 169.82C365.424 169.82 356.425 174.865 347.208 174.865C337.99 174.865 317.575 178.375 317.575 178.375C317.575 178.375 312.304 184.52 306.821 184.739C301.332 184.957 291.896 178.594 291.896 178.594C276.09 173.548 253.489 158.622 253.489 158.622" stroke="#212125" stroke-width="4" stroke-miterlimit="10" stroke-linecap="round" stroke-linejoin="round"/>
<path d="M377.394 3.58203C377.016 3.58203 376.639 3.635 376.261 3.70122C375.884 3.62838 375.507 3.58203 375.129 3.58203C374.44 3.58203 373.765 3.71447 373.09 3.95285C372.414 3.72109 371.732 3.58203 371.05 3.58203C353.29 3.58203 338.895 83.5602 338.895 182.225C338.895 280.89 353.29 360.868 371.05 360.868C371.739 360.868 372.414 360.736 373.09 360.497C373.765 360.729 374.447 360.868 375.129 360.868C375.507 360.868 375.884 360.815 376.261 360.749C376.639 360.822 377.016 360.868 377.394 360.868C395.153 360.868 409.549 280.89 409.549 182.225C409.549 83.5602 395.153 3.58203 377.394 3.58203Z" fill="#212125"/>
<path d="M355.932 146.552L384.949 140.414C384.949 140.414 389.022 140.772 385.512 142.897C382.002 145.016 372.739 146.552 372.739 146.552L381.155 150.069C381.155 150.069 383.254 152.453 381.572 156.095C379.89 159.736 378.473 156.095 378.473 156.095L378.91 152.757L370.838 150.684C370.838 150.684 375.487 157.651 367.739 158.816C359.985 159.981 355.926 158.816 355.926 158.816V146.552H355.932Z" fill="white" stroke="#212125" stroke-width="2" stroke-miterlimit="10" stroke-linecap="round" stroke-linejoin="round"/>
<path d="M369.288 360.204C387.047 360.204 401.444 280.223 401.444 181.561C401.444 82.8992 387.047 2.91797 369.288 2.91797C351.529 2.91797 337.133 82.8992 337.133 181.561C337.133 280.223 351.529 360.204 369.288 360.204Z" fill="#212125"/>
<path d="M363.206 360.204C380.965 360.204 395.362 280.223 395.362 181.561C395.362 82.8992 380.965 2.91797 363.206 2.91797C345.447 2.91797 331.051 82.8992 331.051 181.561C331.051 280.223 345.447 360.204 363.206 360.204Z" fill="white" stroke="#212125" stroke-width="4" stroke-miterlimit="10" stroke-linecap="round" stroke-linejoin="round"/>
<path d="M372.558 360.204C390.317 360.204 404.713 280.223 404.713 181.561C404.713 82.8992 390.317 2.91797 372.558 2.91797C354.799 2.91797 340.402 82.8992 340.402 181.561C340.402 280.223 354.799 360.204 372.558 360.204Z" fill="#EB4130" stroke="#212125" stroke-width="4" stroke-miterlimit="10" stroke-linecap="round" stroke-linejoin="round"/>
<path d="M380.063 107.125C382.832 107.125 385.076 104.881 385.076 102.112C385.076 99.3439 382.832 97.0996 380.063 97.0996C377.295 97.0996 375.051 99.3439 375.051 102.112C375.051 104.881 377.295 107.125 380.063 107.125Z" fill="#212125"/>
<path d="M378.958 106.053C381.726 106.053 383.971 103.808 383.971 101.04C383.971 98.2716 381.726 96.0273 378.958 96.0273C376.19 96.0273 373.945 98.2716 373.945 101.04C373.945 103.808 376.19 106.053 378.958 106.053Z" fill="white" stroke="#212125" stroke-width="4" stroke-miterlimit="10" stroke-linecap="round" stroke-linejoin="round"/>
<path d="M218.502 178.508L200.113 198.863" stroke="#212125" stroke-width="4" stroke-miterlimit="10" stroke-linecap="round" stroke-linejoin="round"/>
<path d="M388.014 167.113C388.014 167.113 390.014 160.418 386.113 156.564L388.014 167.113Z" fill="white"/>
<path d="M388.014 167.113C388.014 167.113 390.014 160.418 386.113 156.564" stroke="#212125" stroke-width="4" stroke-miterlimit="10" stroke-linecap="round" stroke-linejoin="round"/>
<path d="M368.507 145.949C367.416 135.724 364.777 130.719 361.796 130.719C357.823 130.719 354.602 143.467 354.602 159.193C354.602 174.918 357.823 187.666 361.796 187.666C364.854 187.666 366.803 183.08 367.845 172.436" stroke="#212125" stroke-width="4"/>
<circle cx="438.715" cy="174.465" r="6" fill="#212125"/>
<path d="M111.57 279.047C111.57 288.807 110.579 297.576 109.012 303.846C108.224 306.997 107.318 309.405 106.389 310.977C105.38 312.683 104.721 312.805 104.631 312.805C104.54 312.805 103.881 312.683 102.873 310.977C101.944 309.405 101.038 306.997 100.25 303.846C98.6823 297.576 97.6914 288.807 97.6914 279.047C97.6914 269.287 98.6823 260.518 100.25 254.247C101.038 251.097 101.944 248.689 102.873 247.117C103.881 245.411 104.54 245.289 104.631 245.289C104.721 245.289 105.38 245.411 106.389 247.117C107.318 248.689 108.224 251.097 109.012 254.247C110.579 260.518 111.57 269.287 111.57 279.047Z" stroke="#212125" stroke-width="4"/>
<path d="M105.298 265.805C104.636 271.323 103.51 284.677 104.305 293.947" stroke="#212125" stroke-width="4" stroke-linecap="round"/>
<path d="M92.3866 260.506C91.3933 267.017 90.0027 283.351 92.3866 296.595" stroke="#212125" stroke-width="4" stroke-linecap="round"/>
<path d="M349.953 139.328C349.732 140.321 346.311 149.923 347.966 167.14" stroke="#212125" stroke-width="4" stroke-linecap="round" stroke-linejoin="round"/>
<path d="M349.619 179.059C349.398 178.065 348.957 175.35 348.957 172.437" stroke="#212125" stroke-width="4" stroke-linecap="round" stroke-linejoin="round"/>
<path d="M407.531 137.713L378.514 143.851C378.206 146.648 378.004 156.97 379.667 159.883C379.667 159.883 382.574 161.28 390.328 160.115C398.075 158.949 393.427 151.983 393.427 151.983L401.499 154.056L401.062 157.393C401.062 157.393 404.479 161.035 406.161 157.393C407.836 153.751 405.737 149.367 405.737 149.367L396 146.5C396 146.5 404.99 145.119 408.5 143C412.01 140.874 407.531 137.713 407.531 137.713Z" fill="white" stroke="#212125" stroke-width="4" stroke-miterlimit="10" stroke-linecap="round" stroke-linejoin="round"/>
<path d="M378.516 143.852C378.516 143.852 367.424 145.851 356.492 147.275C355.154 151.136 353.281 161.906 356.492 174.093C357.591 172.557 369.789 172.16 369.789 172.16C379.006 172.16 388.005 167.114 388.005 167.114C388.005 167.114 376.49 163.167 378.516 143.852Z" fill="#3872F5" stroke="#212125" stroke-width="4" stroke-miterlimit="10" stroke-linecap="round" stroke-linejoin="round"/>
</svg>
